!!!OTL: 1319. Soldatenleben.
!!!ODT: 1881
!!!ARE: Europa, Mitteleuropa, Deutschland
!!!SCT: E1319A
!!!TXL: @@DE
!!!YEM: Copyright 1995, estate of Helmut Schaffrath.
**kern	**text
*ICvox	*
*M4/4	*
*met(c|)	*
*k[f#]	*
*G:	*
!LO:TX:a:t=Preuß. Soldaten-Ldb. 1881. Nr. 56.	!
!LO:TX:a:t=Neuere Form.	!
{4d	Kein
=1	=1
4g	beſ-
4b	-ſer
4b	Le-
4dd	-ben
=2	=2
(2dd	iſt
4cc)}	.
{4b	auf
=3	=3
4.cc	die-
8ee	-ſer
4dd	Welt
4cc	ʒu
=4	=4
4cc	den-
4b	-ken,
4r}	.
{4d	Als
=5	=5
4g	wenn
4b	man
4b	trinkt
4dd	und
=6	=6
(2dd	ißt,
4cc)}	.
{4b	und
=7	=7
4.cc	läßt
8ee	ſich
4dd	gar
4cc	nichts
=8	=8
4cc	krän-
4b	-ken.
4r}	.
{4dd	Denn
=9	=9
4.dd	ein
8a	Sol-
4a	-dat
4dd	im
=10	=10
(2dd	Feld
4cc#)}	.
{4dd	ſein'm
=11	=11
4.ee	Her-
8cc#	-ren
4a	die-
4g	-net
=12	=12
(4g	treu;
4f#)	.
4r}	.
{4d	hat
=13	=13
4g	er
4b	gleich
4b	nicht
4dd	viel
=14	=14
(2dd	Geld,
4cc)}	.
{4b	hat
=15	=15
4.cc	er
8ee	doch
8ddL	Ehr
8ccJ	.
8bL	da-
8aJ	.
=16	=16
4g}	-bei.
{8g	Val-
8g	-le-
4b	-ri,
8b	val-
8b	-le-
=17	=17
4dd	-ra,
8dd	val-
8dd	-le-
[2gg	-ra.
=18	=18
4gg]	.
!LO:N:vis=4	!
2r}	.
==	==
!!!AGN: Staende -, Soldaten -, Kriegs - Lied
!!!ONB: ESAC (Essen Associative Code) Database: ERK3
!!!AMT: simple quadruple
!!!AIN: vox
!!!EED: Helmut Schaffrath
!!!EEV: 1.0
!!!GTL: Staendelieder (Berufslieder). 1. Soldaten- und Kriegslieder. Soldatenlieder seit dem 30jaehr. Kriege.
!!!URL-scan: https://rosdok.uni-rostock.de/mcrviewer/recordIdentifier/rosdok_ppn745177999/iview2/phys_0207.iview2?x=-128.77276441889308&y=892.8175069646677&scale=0.5870222003877485&rotation=0&layout=singlePageLayout
!!!ENC: Anna Maria Matuszewska
!!!EEV: 2024/12/27
*-	*-
